X:488
%%etbk:tnset id:207,pos:1,rep:5x,ant:
%%etbk:pldat 2014-10-16T19:02,2014-10-13T17:57,2014-10-11T13:20,2014-09-18T17:56,2014-09-16T17:51,2014-09-13T13:23,2014-08-14T19:07,2014-08-13T18:33,2014-08-11T19:10,2014-08-10T13:53,2014-08-09T17:37,2014-08-06T19:25,2014-08-04T18:26,2014-08-03T15:44,2014-08-02T15:16,2014-07-31T18:35,2014-07-30T19:22,2014-07-29T19:06,2014-07-27T16:40,2014-07-26T15:53,2014-07-25T19:02,2014-07-23T18:12,2014-07-22T19:06,2014-07-21T20:40,2014-07-20T14:15,2014-07-16T18:26,2014-07-05T13:09,2014-07-02T17:13,2014-06-20T16:00,2014-06-17T18:44,2014-06-15T11:42,2014-06-12T18:02,2014-06-11T15:19,2014-06-07T15:21,2014-06-05T18:35,2014-06-03T17:06,2014-01-02T11:12
T:Goat Song
H: Created 2013-07-16 /  Modified 2014-07-02
Z: Piano Box Version by Martin Fleischmann
M:4/4
L:1/8
R: song
K: Cmaj
"C-Drone"!1!G,A,C!4!D!3!E2!2!D!1!C|!3!EDDC |!3!EDE!5!G-G4|-G8| 
"C-Drone"!1!G,A,C!4!D!5!E2!4!DC|!5!E!3!CC{B,}C |ECC{B,}C-C4|-C8|
"C-Drone"!3!AGAc !2!G2!1!F!3!E|"G-Drone"!3!E!2!DD{F}D| EDD{F}D-D4|-D8|
"G-Drone"!3!AGAc !2!G2!1!F!3!E|"C-Drone"!3!E!1!CC{F}C |ECC{F}C-C4|-C8|


